packages/sights/assets/overlays/36qmcrgr.svg

<svg width="500" height="375" viewBox="0 0 500 375" fill="none" xmlns="http://www.w3.org/2000/svg">
<path d="M6.92969 196.89C6.92969 196.89 167.48 148.51 251.87 143.46C251.87 143.46 360.69 134.52 492.93 170.18" stroke="white" stroke-miterlimit="10"/>
<path d="M6.92969 247C6.92969 247 60.9297 324.19 187.51 360.88L208.61 363.02C208.61 363.02 313.68 249.4 492.93 175.11" stroke="white" stroke-miterlimit="10"/>
<path d="M6.92969 270.73C6.92969 270.73 47.3297 326.16 130.11 369.64" stroke="white" stroke-miterlimit="10"/>
<path d="M492.931 195.75C492.931 195.75 369.731 269.36 292.221 369.67" stroke="white" stroke-miterlimit="10"/>
<path d="M492.93 206.64C492.93 206.64 367.43 291.3 321.57 369.64" stroke="white" stroke-miterlimit="10"/>
<path d="M408.5 272.39C408.5 272.39 437.6 335.39 441.73 369.67" stroke="white" stroke-miterlimit="10"/>
<path d="M415.43 266.38C415.43 266.38 447.23 337.91 448.61 370.7" stroke="white" stroke-miterlimit="10"/>
<path d="M178.18 181.38C176.04 179.38 164.89 165.94 164.89 165.94H158.77L162.13 182.75C160.526 184.437 159.371 186.5 158.77 188.75C161.742 190.224 164.872 191.354 168.1 192.12L193.62 184.32L186.29 177.44H181.85L175.43 178.21" stroke="white" stroke-miterlimit="10"/>
<path d="M68.5195 179.63L127.13 203.54C127.13 203.54 231.57 271.54 250 290.22L267.43 309.69" stroke="white" stroke-miterlimit="10"/>
</svg>

<svg width="500" height="375" fill="none" xmlns="http://www.w3.org/2000/svg"><path d="M6.93 196.89s160.55-48.38 244.94-53.43c0 0 108.82-8.94 241.06 26.72M6.93 247s54 77.19 180.58 113.88l21.1 2.14S313.68 249.4 492.93 175.11M6.93 270.73s40.4 55.43 123.18 98.91M492.931 195.75s-123.2 73.61-200.71 173.92" stroke="#fff" stroke-miterlimit="10"/><path d="M492.93 206.64s-125.5 84.66-171.36 163" stroke="#fff" stroke-miterlimit="10"/><path d="M408.5 272.39s29.1 63 33.23 97.28M415.43 266.38s31.8 71.53 33.18 104.32M178.18 181.38c-2.14-2-13.29-15.44-13.29-15.44h-6.12l3.36 16.81a13.92 13.92 0 0 0-3.36 6 43.71 43.71 0 0 0 9.33 3.37l25.52-7.8-7.33-6.88h-4.44l-6.42.77M68.52 179.63l58.61 23.91s104.44 68 122.87 86.68l17.43 19.47" stroke="#fff" stroke-miterlimit="10"/></svg>
